X:33
T:Da Full Rigged Ship
C:Shetland Jig
M:6/8
F:http://trillian.mit.edu/~jc/music/abc/jig/DaFullRiggedShip_1.abc 2003-08-18 23:56:33 UT
K:Am
"Am" e2a aea | aea "G" b2 a | "Em" e2 ^f "C" g2 g | gag "D" ^f2 d |
"Am" e2 a aea | aea "G" b2 a | "Em" g2 e edB | "Am" A3 A3 :|
|: "Am" efe edB | A2 B "C" c3 | "G" BAG BAG | "G" Bcd "Em" E3 |
"Am" efe edB | A2 B "C" c2 d | "Em" efe dcB | "Am" A3 A3 :|
|: "Em" EFE EFE | EFE "C" c3 | "Am" EFE E2D | "C" E2F GEC |
"Em" EFE EFE | EFE "C" c2d | "Em" efe dcB | "Am" A3 A3 :||
%%leftmargin 1.3cm
%%staffwidth 18.4cm
%%staffsep 38
